X:1
T:Title
%%score { ( 1 4 ) | ( 2 3 ) }
L:1/8
Q:1/4=100
M:4/4
K:Ab
V:1 treble nm="Grand Piano"
V:4 treble 
V:2 bass 
V:3 bass 
V:1
 [Ec]2 [CA][DB] [Ec]2 [CA][EB] | [FA]2 [FA][DF] [CE]4 | [CA]2 [CA][DB] [Ec]2 cd | e2 e>c [GB]4 | %4
w: Margaret~M.~Simpson * * * * *||||
 c2 cB A2 EE | FA[Fd][=Ed] [_Ec]4 | [CA]2 [CA]B [Ec] [Ee]2 [Fd] | c2 z2 z4 | %8
w: ||||
 [Ee]2 [Ee]>[Ee] [Ee]3 [Ec] | [CA]2 [DA]>[DF] [CE]4 | A>A A>B c2 A2 | z4 B4[K:bass] | %12
w: ||||
 [Ec]>[Ec] [Ec]>[Ec] e2 c2 | A>B [FA]>[DF] [Fd]4 | [Ec] [Ae]2 [Af] [Ae]3 [EA] | %15
w: |||
 [Ec]2 [Gc]>[GB] [EA]4 |] %16
w: |
V:2
 [A,,A,]2 [A,,E,][A,,E,] [A,,A,]2 [A,,A,][C,A,] | [D,A,]2 [D,D][D,A,] [A,,A,]4 | %2
 [A,,A,]2 [A,,A,][A,,A,] [A,,A,]2[K:treble] [A,E][A,B,E] | [A,CA]2 [A,CA]>[A,EA] [E,E]4 | %4
 [A,EA]2 [A,EA][K:bass][A,DE] [A,CE]2 [C,A,][C,A,] | .A,2 z2 z4 | %6
 [A,,E,]2 [A,,E,][E,D] [A,,A,] [C,G,]2 [D,A,] | .[E,E]2 z2 z4 | [A,C]2 [A,C]>[A,C] [A,C]3 [A,,A,] | %9
 [A,,E,]2 [A,,F,]>[A,,A,] [A,,A,]4 | [A,C]>[A,C] [A,C]>[A,D] [A,E]2 [A,C]2 | z4 [G,E]4 | %12
 [A,,A,]>[A,,A,] [A,,A,]>[A,,B,] [A,CE]2 [A,E]2 | [F,CF]2 [D,D]>[D,A,] [D,A,]4 | %14
 [E,A,] [E,C]2 [=D,_C] [E,=C]3 [E,C] | [E,A,]2 [E,E]>[E,D] [A,C]4 |] %16
V:3
 x8 | x8 | x6[K:treble] x2 | x8 | x3[K:bass] x5 | [D,D]-[D,F,D][D,A,][D,A,] [A,,A,]4 | x8 | %7
 A,-[F,A,][E,A,E][E,G,D] [A,,A,]4 | x8 | x8 | x8 | [G,B,E]>[G,B,E] [F,A,=D]>[F,A,D] .E,2 z2 | x8 | %13
 x8 | x8 | x8 |] %16
V:4
 x8 | x8 | x8 | x8 | x8 | x8 | x8 | z =DcB [CA]4 | x8 | x8 | x8 | B>B B>c z[K:bass] D,C,B,, | x8 | %13
 x8 | x8 | x8 |] %16

